lib/logo_updates/nrk-logo-nrk-sapmi-title-below-on-light.svg

<svg width="165" height="116" viewBox="0 0 165 116" fill="none" xmlns="http://www.w3.org/2000/svg">
<path d="M0 43V1.00381H13.7802V43H0ZM32.5283 7.68773L40.4532 43H25.3721L15.9092 1.00381H24.3676C26.3072 0.978642 28.1892 1.66237 29.6607 2.92636C31.1347 4.13734 32.1473 5.81844 32.5283 7.68773ZM42.5233 43V1.00381H56.3035V43H42.5233ZM66.7116 16.9743C65.2267 16.9888 63.7656 16.6003 62.4839 15.8504C61.2193 15.1194 60.1688 14.0689 59.438 12.8041C58.6872 11.5222 58.2986 10.0607 58.3134 8.57511C58.2964 7.09861 58.6853 5.64583 59.438 4.3755C60.1766 3.12447 61.2259 2.08533 62.4839 1.35882C63.766 0.609758 65.2269 0.221301 66.7116 0.234844C68.1877 0.218947 69.6399 0.607751 70.9108 1.35882C72.1562 2.09169 73.1943 3.12996 73.9271 4.3755C74.6789 5.64618 75.0677 7.09873 75.0517 8.57511C75.0655 10.0605 74.6769 11.5218 73.9271 12.8041C73.202 14.0633 72.1627 15.113 70.9108 15.8504C69.6398 16.6029 68.1866 16.9918 66.7097 16.9743H66.7116ZM77.1807 43V1.00381H90.9621V43H77.1807ZM108.408 23.9538C108.447 23.9946 108.742 24.4776 109.295 25.403C109.848 26.3283 110.567 27.5114 111.454 28.952C112.341 30.392 113.277 31.9199 114.262 33.536C115.247 35.1521 116.174 36.6803 117.043 38.1202C117.908 39.5602 118.894 41.1867 120 43H104.859C103.912 41.4621 103.055 40.0721 102.286 38.83C101.517 37.5878 100.7 36.2471 99.8334 34.8077C98.9653 33.3698 98.1071 31.9699 97.2587 30.6081C96.4103 29.2464 95.6813 28.0536 95.0714 27.0297C94.459 26.0051 94.0348 25.3149 93.7989 24.9594C93.2139 24.0771 92.8677 23.058 92.7944 22.0019C92.853 20.9883 93.1791 20.0084 93.7397 19.1619C93.9762 18.7676 94.41 18.0675 95.0409 17.062C95.6717 16.0564 96.411 14.8637 97.2587 13.4835C98.1064 12.1034 98.9647 10.6936 99.8334 9.25431C100.702 7.81501 101.519 6.46432 102.286 5.20247C103.056 3.94193 103.914 2.54205 104.859 1.00285H120L108.289 20.1082C107.926 20.6755 107.722 21.3292 107.697 22.0019C107.736 22.7081 107.983 23.3871 108.406 23.9538H108.408Z" fill="#0A2343"/>
<path d="M25.5175 83.3106C24.6644 82.43 23.6746 81.6972 22.5875 81.1415C21.448 80.5566 20.2619 80.0696 19.0421 79.6856C17.7907 79.2894 16.5015 78.9524 15.1746 78.6744C14.1575 78.4374 13.2102 78.2 12.3325 77.9623C11.5259 77.7512 10.7408 77.4623 9.98841 77.0997C9.34163 76.7892 8.7406 76.3893 8.20223 75.9112C7.69508 75.4579 7.30269 74.8875 7.05841 74.2482C6.78794 73.4964 6.65885 72.7 6.67762 71.9C6.66442 71.0716 6.7932 70.2472 7.05841 69.4636C7.29895 68.7723 7.70104 68.1503 8.23036 67.651C8.77912 67.1416 9.40218 66.7211 10.0773 66.4042C10.849 66.0475 11.668 65.8071 12.5083 65.691C13.5082 65.5465 14.5173 65.4771 15.5272 65.483C16.4468 65.4848 17.3656 65.5341 18.2803 65.6306C19.206 65.7286 20.1258 65.8777 21.0355 66.0773C21.9186 66.2716 22.7894 66.5197 23.6431 66.8201C24.4425 67.0988 25.217 67.4465 25.9579 67.8591L26.7784 62.6306C25.9452 62.1898 25.0717 61.8316 24.1706 61.561C23.2518 61.2843 22.3242 61.0462 21.3872 60.8468C20.4384 60.648 19.4797 60.4996 18.5156 60.4022C17.539 60.3031 16.5429 60.2536 15.5272 60.2536C13.455 60.2309 11.388 60.4701 9.37418 60.9657C7.65948 61.3855 6.03918 62.1321 4.59934 63.1655C3.27222 64.1306 2.20433 65.4173 1.49337 66.9082C0.7348 68.5839 0.364123 70.4133 0.409408 72.2565C0.375854 73.683 0.60432 75.1033 1.08325 76.445C1.50324 77.5699 2.15175 78.5927 2.98675 79.447C3.81332 80.2828 4.76219 80.9843 5.79967 81.5268C6.90002 82.1018 8.0473 82.5794 9.22873 82.9541C10.4593 83.3502 11.7191 83.687 13.0083 83.9643C14.0631 84.2013 15.0398 84.4489 15.9383 84.7071C16.7739 84.9405 17.5874 85.2487 18.3692 85.6281C19.0418 85.9502 19.6641 86.3707 20.2162 86.8761C20.7394 87.3747 21.1491 87.9832 21.4165 88.6589C21.7277 89.473 21.8773 90.3413 21.8569 91.2141C21.8724 92.1422 21.7338 93.0663 21.4468 93.9477C21.1897 94.71 20.7917 95.4158 20.2746 96.0275C19.7549 96.6305 19.1161 97.1162 18.3995 97.4528C17.59 97.8312 16.7317 98.0915 15.8503 98.2262C14.7746 98.3937 13.6874 98.4733 12.5991 98.4641C11.5411 98.4614 10.4843 98.3918 9.43474 98.256C8.34088 98.1173 7.2466 97.9289 6.15209 97.6905C5.07429 97.4577 4.00867 97.1701 2.95933 96.8289C1.92276 96.4941 0.936297 96.1477 0 95.7899L0.761828 101.673C1.76076 102.051 2.77789 102.378 3.80914 102.653C4.74509 102.902 5.69341 103.1 6.6502 103.247C7.56826 103.385 8.4867 103.494 9.40541 103.574C10.3241 103.653 11.2515 103.693 12.1878 103.692C14.2857 103.706 16.3788 103.486 18.4298 103.039C20.2451 102.653 21.9736 101.927 23.527 100.899C24.977 99.9266 26.1494 98.5842 26.9267 97.0071C27.7822 95.139 28.1934 93.0934 28.1271 91.0348C28.1592 89.5011 27.9316 87.9733 27.4542 86.5176C27.0445 85.3194 26.3839 84.2252 25.5175 83.3106Z" fill="#114F9D"/>
<path d="M60.5895 99.2959C60.1611 99.3357 59.7295 99.27 59.3315 99.1045C58.9334 98.939 58.5806 98.6785 58.3031 98.3451C57.7598 97.3929 57.5341 96.2883 57.6595 95.1955L57.7756 82.954C57.7886 81.6706 57.631 80.3914 57.3068 79.1508C57.0227 78.0623 56.5462 77.0351 55.9005 76.1191C55.2484 75.224 54.4207 74.4754 53.4696 73.9204C52.3634 73.2844 51.1679 72.8238 49.9244 72.5546C48.4036 72.2215 46.8508 72.0621 45.295 72.0792C44.0604 72.0782 42.8269 72.1573 41.6022 72.3159C40.4454 72.4643 39.3 72.6929 38.1741 73.0002C37.1299 73.2871 36.1026 73.6344 35.0975 74.0402L34.3943 79.0913C35.371 78.7357 36.2999 78.4386 37.1779 78.1999C38.0559 77.9612 38.9065 77.7641 39.7269 77.6057C40.531 77.4501 41.3435 77.3414 42.1599 77.2799C42.9595 77.2204 43.7502 77.1903 44.5322 77.1897C45.7271 77.164 46.9198 77.304 48.0774 77.6057C48.9224 77.8203 49.6993 78.2501 50.3345 78.8546C50.9 79.442 51.304 80.1693 51.5065 80.9642C51.7564 81.9439 51.8748 82.9534 51.8582 83.9652L51.8512 85.4558L45.0029 85.9262C42.6602 85.9925 40.3521 86.5167 38.2053 87.4702C36.5987 88.1832 35.2115 89.3227 34.1902 90.7684C33.3238 92.0549 32.8641 93.5782 32.8718 95.1361C32.8609 96.5982 33.2137 98.0396 33.8981 99.3266C34.6147 100.648 35.6931 101.731 37.0031 102.445C38.6017 103.289 40.3882 103.698 42.189 103.634C43.8763 103.673 45.5559 103.391 47.1408 102.803C48.511 102.259 49.7646 101.452 50.8326 100.426C51.2387 100.032 51.6237 99.6166 51.986 99.181C52.0997 99.7966 52.3144 100.388 52.6209 100.932C53.1428 101.842 53.9455 102.552 54.9052 102.953C55.9663 103.385 57.1023 103.597 58.2456 103.577C58.5982 103.577 58.9388 103.566 59.2709 103.547C59.597 103.527 59.9207 103.477 60.2378 103.397C60.5503 103.318 60.8337 103.25 61.0876 103.189C61.3172 103.138 61.5425 103.068 61.7614 102.981L62.4062 99.0008C62.083 99.113 61.7496 99.1926 61.4109 99.2385C61.1385 99.2745 60.8642 99.2937 60.5895 99.2959ZM50.8317 96.6217C50.1963 97.1312 49.5086 97.5699 48.7806 97.9301C48.0552 98.2873 47.287 98.5471 46.4953 98.7026C45.6746 98.8626 44.8405 98.9419 44.0048 98.9394C43.05 98.9676 42.1005 98.7851 41.2221 98.4045C40.5068 98.0904 39.9033 97.5619 39.4925 96.8901C39.0866 96.1778 38.8838 95.3652 38.9066 94.5428C38.8499 93.5516 39.1181 92.5694 39.6694 91.7489C40.307 90.9939 41.1713 90.472 42.1297 90.2633C43.6268 89.9064 45.163 89.7469 46.7004 89.7889H51.8317L51.8064 95.6868C51.5081 96.0255 51.182 96.3389 50.8317 96.6217Z" fill="#114F9D"/>
<path d="M54.5528 57.936H48.225L43.2439 68.5731H47.8156L54.5528 57.936Z" fill="#114F9D"/>
<path d="M90.5036 73.951C88.4005 72.6452 85.9656 71.9943 83.501 72.0791C82.0383 72.0865 80.582 72.2757 79.1647 72.6426C77.633 73.0381 76.1564 73.6274 74.7697 74.3966C74.4943 74.5482 74.2217 74.7165 73.9483 74.8869V72.1385L67.9721 73.0893V115.518H73.9483V102.214C73.9883 102.23 74.0255 102.249 74.0665 102.267C75.1494 102.723 76.2798 103.051 77.436 103.248C78.8013 103.476 80.1835 103.585 81.5672 103.574C84.2055 103.62 86.8069 102.943 89.0963 101.612C91.3451 100.261 93.1728 98.2945 94.3702 95.9383C95.7533 93.1285 96.4275 90.0148 96.3324 86.8759C96.3877 84.2219 95.8786 81.5871 94.8393 79.1507C93.9226 77.0274 92.4159 75.2207 90.5036 73.951ZM88.9509 93.8287C88.2469 95.4066 87.0671 96.7172 85.5814 97.5715C83.9299 98.4489 82.0831 98.879 80.2196 98.8204C79.3268 98.8211 78.4351 98.7511 77.553 98.6114C76.6274 98.462 75.7161 98.2338 74.8284 97.929C74.5471 97.83 74.2422 97.7171 73.9492 97.6082V78.8545C74.0274 78.8179 74.1074 78.7703 74.1846 78.7347C75.044 78.3385 75.8451 78.0014 76.5874 77.7235C77.2902 77.4572 78.0161 77.2583 78.7555 77.1292C79.4134 77.0144 80.0793 76.9547 80.7468 76.9509C82.5536 76.8901 84.3469 77.2885 85.9632 78.1098C87.3758 78.8898 88.482 80.1374 89.0973 81.6445C89.8427 83.5731 90.192 85.6357 90.1238 87.7059C90.186 89.8098 89.7853 91.9014 88.9509 93.8287Z" fill="#114F9D"/>
<path d="M144.092 73.3271C142.494 72.4473 140.693 72.0165 138.876 72.0792C137.299 72.0749 135.733 72.3462 134.247 72.8814C132.737 73.4296 131.316 74.2002 130.027 75.1683C129.298 75.7171 128.603 76.3125 127.948 76.951C127.348 75.4632 126.289 74.2124 124.929 73.3855C123.312 72.5021 121.491 72.0717 119.655 72.1385C118.088 72.1388 116.533 72.4099 115.055 72.9399C113.539 73.4812 112.108 74.242 110.807 75.1989C110.386 75.5059 109.978 75.8397 109.576 76.1893V72.1425L103.599 73.0339V103.044H109.576V80.4333C110.28 79.9654 111.014 79.5459 111.774 79.1775C112.703 78.7313 113.675 78.3825 114.674 78.1366C115.595 77.9067 116.539 77.7873 117.487 77.781C118.358 77.7539 119.225 77.9055 120.036 78.2266C120.707 78.515 121.3 78.9632 121.765 79.5331C122.274 80.1959 122.625 80.9691 122.79 81.7922C123.019 82.8555 123.127 83.9417 123.113 85.0298V103.037H129.09V83.7819C129.094 82.6452 129.018 81.5097 128.863 80.3839C129.541 79.9331 130.243 79.5204 130.965 79.1478C131.879 78.6808 132.842 78.3219 133.837 78.0782C134.776 77.8442 135.74 77.7241 136.708 77.7205C137.569 77.6997 138.425 77.8515 139.228 78.1673C139.911 78.4493 140.515 78.8984 140.986 79.4746C141.495 80.1365 141.846 80.9096 142.011 81.7328C142.24 82.7964 142.348 83.883 142.333 84.9714V103.037H148.311V83.7235C148.386 81.4761 148.028 79.2353 147.256 77.1273C146.648 75.5387 145.534 74.2015 144.092 73.3271Z" fill="#114F9D"/>
<path d="M157.159 103.04H163.136V72.1386L157.159 73.03V103.04Z" fill="#114F9D"/>
<path d="M163.722 61.1737C163.374 60.5642 162.881 60.0533 162.287 59.6881C161.678 59.3114 160.978 59.116 160.265 59.1245C159.543 59.1183 158.834 59.3133 158.214 59.6881C157.603 60.0509 157.089 60.5612 156.72 61.1737C156.348 61.7909 156.155 62.5017 156.163 63.2248C156.157 63.9567 156.35 64.6762 156.72 65.3047C157.077 65.9268 157.594 66.4399 158.214 66.7903C158.84 67.1475 159.547 67.332 160.265 67.3252C160.974 67.3344 161.672 67.1496 162.287 66.7903C162.89 66.4372 163.386 65.9234 163.722 65.3047C164.075 64.6701 164.256 63.953 164.25 63.2248C164.258 62.5055 164.076 61.7972 163.722 61.1737Z" fill="#114F9D"/>
</svg>

<svg xmlns="http://www.w3.org/2000/svg" viewBox="0 0 165 116"><path fill="#0A2343" d="M0 43V1.004h13.78V43H0ZM32.528 7.688 40.453 43h-15.08L15.908 1.004h8.459a7.965 7.965 0 0 1 5.293 1.922 8.31 8.31 0 0 1 2.867 4.762ZM42.523 43V1.004h13.78V43h-13.78Zm24.189-26.026a8.213 8.213 0 0 1-4.228-1.124 8.336 8.336 0 0 1-3.046-3.046 8.206 8.206 0 0 1-1.125-4.229 8.056 8.056 0 0 1 1.125-4.2 8.437 8.437 0 0 1 3.046-3.016A8.232 8.232 0 0 1 66.712.235a8.083 8.083 0 0 1 4.199 1.124 8.503 8.503 0 0 1 3.016 3.016 8.075 8.075 0 0 1 1.125 4.2 8.226 8.226 0 0 1-1.125 4.23 8.4 8.4 0 0 1-3.016 3.045 8.059 8.059 0 0 1-4.201 1.124h.002ZM77.18 43V1.004h13.781V43H77.181Zm31.227-19.046c.039.04.334.524.887 1.449.553.925 1.272 2.108 2.159 3.549a1143.28 1143.28 0 0 1 5.589 9.168A854.89 854.89 0 0 0 120 43h-15.141c-.947-1.538-1.804-2.928-2.573-4.17a382.214 382.214 0 0 1-2.453-4.022 351.934 351.934 0 0 0-2.574-4.2 213.445 213.445 0 0 1-2.188-3.578 62.753 62.753 0 0 0-1.272-2.07 6.119 6.119 0 0 1-1.005-2.958 5.744 5.744 0 0 1 .946-2.84c.236-.394.67-1.095 1.3-2.1.632-1.006 1.371-2.198 2.219-3.579.847-1.38 1.706-2.79 2.574-4.229.869-1.439 1.686-2.79 2.453-4.052.77-1.26 1.628-2.66 2.573-4.2H120l-11.711 19.106a3.773 3.773 0 0 0-.592 1.894c.039.706.286 1.385.709 1.952h.002Z"/><path fill="#114F9D" d="M25.517 83.31a11.14 11.14 0 0 0-2.93-2.169 22.673 22.673 0 0 0-3.545-1.455 39.936 39.936 0 0 0-3.867-1.012 82.71 82.71 0 0 1-2.843-.712c-.806-.21-1.591-.5-2.344-.862a7.725 7.725 0 0 1-1.786-1.189 4.278 4.278 0 0 1-1.144-1.663 6.488 6.488 0 0 1-.38-2.348 7.241 7.241 0 0 1 .38-2.436A4.544 4.544 0 0 1 8.23 67.65a7.232 7.232 0 0 1 1.847-1.247 8.599 8.599 0 0 1 2.431-.713c1-.145 2.01-.214 3.02-.208.919.002 1.838.051 2.752.148.926.098 1.846.247 2.755.446.884.195 1.754.443 2.608.743.8.279 1.574.627 2.315 1.04l.82-5.23a14.487 14.487 0 0 0-2.607-1.069 34.682 34.682 0 0 0-2.784-.714 27.466 27.466 0 0 0-2.871-.445c-.977-.099-1.973-.148-2.989-.148a24.618 24.618 0 0 0-6.153.712 13.83 13.83 0 0 0-4.775 2.2 9.887 9.887 0 0 0-3.106 3.742A12.243 12.243 0 0 0 .41 72.257a11.647 11.647 0 0 0 .674 4.188 8.595 8.595 0 0 0 1.904 3.002 11.36 11.36 0 0 0 2.813 2.08c1.1.575 2.247 1.052 3.429 1.427 1.23.396 2.49.733 3.78 1.01 1.054.237 2.03.485 2.93.743.835.234 1.648.542 2.43.921a7.592 7.592 0 0 1 1.847 1.248 5.008 5.008 0 0 1 1.2 1.783c.312.814.461 1.682.44 2.555a8.378 8.378 0 0 1-.41 2.734 6.38 6.38 0 0 1-1.171 2.08 5.645 5.645 0 0 1-1.875 1.425 9.358 9.358 0 0 1-2.55.773 20.03 20.03 0 0 1-3.25.238 25.16 25.16 0 0 1-3.165-.208 37.703 37.703 0 0 1-3.283-.566 32.548 32.548 0 0 1-3.193-.861A59.692 59.692 0 0 1 0 95.789l.762 5.884a31.66 31.66 0 0 0 3.047.98c.936.249 1.884.447 2.841.594.918.138 1.837.247 2.755.327a32.06 32.06 0 0 0 2.783.118 28.422 28.422 0 0 0 6.242-.653 14.823 14.823 0 0 0 5.097-2.14 10.012 10.012 0 0 0 3.4-3.892 13.318 13.318 0 0 0 1.2-5.972 13.586 13.586 0 0 0-.673-4.517 8.804 8.804 0 0 0-1.937-3.207ZM60.59 99.296a2.64 2.64 0 0 1-1.259-.192 2.674 2.674 0 0 1-1.028-.759 5.17 5.17 0 0 1-.643-3.15l.116-12.241a14.464 14.464 0 0 0-.47-3.803 9.368 9.368 0 0 0-1.405-3.032 7.994 7.994 0 0 0-2.431-2.199 12.358 12.358 0 0 0-3.546-1.365 20.578 20.578 0 0 0-4.629-.476 28.573 28.573 0 0 0-3.693.237 25.194 25.194 0 0 0-3.428.684 28.113 28.113 0 0 0-3.077 1.04l-.703 5.051a35.034 35.034 0 0 1 2.784-.891 35.059 35.059 0 0 1 2.549-.594 21.183 21.183 0 0 1 2.433-.326c.8-.06 1.59-.09 2.372-.09a12.95 12.95 0 0 1 3.545.416 5.093 5.093 0 0 1 2.258 1.249c.565.587.969 1.314 1.172 2.11.25.979.368 1.988.351 3l-.007 1.49-6.848.471c-2.343.067-4.65.59-6.798 1.544a9.774 9.774 0 0 0-4.015 3.298 7.753 7.753 0 0 0-1.318 4.368 8.788 8.788 0 0 0 1.026 4.19 7.762 7.762 0 0 0 3.105 3.119 10.318 10.318 0 0 0 5.186 1.189 13.347 13.347 0 0 0 4.952-.831 11.404 11.404 0 0 0 3.692-2.377c.406-.394.79-.81 1.153-1.245.114.616.328 1.207.635 1.751a4.745 4.745 0 0 0 2.284 2.021 8.465 8.465 0 0 0 3.34.624c.353 0 .694-.011 1.026-.03.326-.02.65-.07.967-.15.312-.079.596-.147.85-.208a4.42 4.42 0 0 0 .673-.208l.645-3.98a5.14 5.14 0 0 1-.995.237 6.677 6.677 0 0 1-.822.058Zm-9.758-2.674c-.636.51-1.323.948-2.051 1.308a9.176 9.176 0 0 1-2.286.773c-.82.16-1.654.239-2.49.236a6.514 6.514 0 0 1-2.783-.534 3.839 3.839 0 0 1-1.73-1.515 4.491 4.491 0 0 1-.585-2.347 4.546 4.546 0 0 1 .762-2.794 4.465 4.465 0 0 1 2.46-1.486 17.631 17.631 0 0 1 4.571-.474h5.132l-.026 5.898a7.98 7.98 0 0 1-.974.935ZM54.553 57.936h-6.328l-4.981 10.637h4.572l6.737-10.637ZM90.504 73.951a12.459 12.459 0 0 0-7.003-1.872 17.658 17.658 0 0 0-4.336.564 18.697 18.697 0 0 0-4.395 1.754c-.276.151-.548.32-.822.49v-2.749l-5.976.951v42.429h5.976v-13.304c.04.016.078.035.119.053 1.082.456 2.213.784 3.369.981 1.365.228 2.747.337 4.131.326 2.639.046 5.24-.631 7.53-1.962a14.025 14.025 0 0 0 5.273-5.674 19.209 19.209 0 0 0 1.962-9.062 18.7 18.7 0 0 0-1.493-7.725 11.897 11.897 0 0 0-4.335-5.2ZM88.95 93.829a8.137 8.137 0 0 1-3.37 3.743 10.707 10.707 0 0 1-5.361 1.248 16.47 16.47 0 0 1-5.391-.891 55.188 55.188 0 0 1-.88-.32V78.854c.078-.037.158-.085.236-.12.859-.397 1.66-.734 2.402-1.011a11.89 11.89 0 0 1 4.16-.773c1.807-.06 3.6.338 5.216 1.159a7.097 7.097 0 0 1 3.134 3.534 15.41 15.41 0 0 1 1.027 6.062 14.348 14.348 0 0 1-1.173 6.123ZM144.092 73.327a10.09 10.09 0 0 0-5.216-1.248 13.55 13.55 0 0 0-4.629.802 16.274 16.274 0 0 0-4.22 2.287 21.525 21.525 0 0 0-2.079 1.783 7.413 7.413 0 0 0-3.019-3.566 10.223 10.223 0 0 0-5.274-1.247c-1.567 0-3.122.272-4.6.802a16.58 16.58 0 0 0-4.248 2.259c-.421.307-.829.64-1.231.99v-4.046l-5.977.89v30.011h5.977v-22.61a18.73 18.73 0 0 1 2.198-1.257 14.955 14.955 0 0 1 2.9-1.04 11.94 11.94 0 0 1 2.813-.356 6.383 6.383 0 0 1 2.549.446 4.554 4.554 0 0 1 1.729 1.306c.509.663.86 1.436 1.025 2.26.229 1.063.337 2.149.323 3.237v18.007h5.977V83.782a24.287 24.287 0 0 0-.227-3.398 22.11 22.11 0 0 1 2.102-1.236 13.225 13.225 0 0 1 2.872-1.07 12.059 12.059 0 0 1 2.871-.358 6.456 6.456 0 0 1 2.52.447 4.48 4.48 0 0 1 1.758 1.308c.509.662.86 1.435 1.025 2.258.229 1.063.337 2.15.322 3.238v18.066h5.978V83.723a17.49 17.49 0 0 0-1.055-6.596 7.63 7.63 0 0 0-3.164-3.8ZM157.159 103.04h5.977V72.139l-5.977.891v30.01ZM163.722 61.174a4.167 4.167 0 0 0-1.435-1.486 3.756 3.756 0 0 0-2.022-.564 3.898 3.898 0 0 0-2.051.564 4.32 4.32 0 0 0-1.494 1.486 3.891 3.891 0 0 0-.557 2.05 4.036 4.036 0 0 0 .557 2.08 4.06 4.06 0 0 0 3.545 2.02 3.906 3.906 0 0 0 2.022-.534 3.847 3.847 0 0 0 1.435-1.485 4.207 4.207 0 0 0 .528-2.08 4.063 4.063 0 0 0-.528-2.051Z"/></svg>
